X:1
T:Title
%%score { ( 1 3 ) | ( 2 4 ) }
L:1/8
M:4/4
K:Db
V:1 bass nm="Grand Piano"
V:3 bass 
V:2 bass 
V:4 bass 
V:1
 z4 z2[Q:1/4=94] [DFA]2 | [F,D]>[G,DE][K:treble] [A,DF][A,EG] [DFA]2 [A,DF][DFA] | %2
 [DGB][Gd][DGB][DGd] [DFA]2 [DFA]2 | [F,D]>[G,DE][K:treble] [A,DF][A,EG] [DFA]2 FF | %4
 EFEF [CE]2 [CA]2 | D>E F[EG] [FA]2 [DF][FA] | BdB[DGd] [DFA]2 [Fd]2 | %7
 [FA]>[GB] [FA][EG] [DF][FA][Fd][Af] | [Ge]4[K:bass][K:treble] z4 | d4 d4 | z4 c4 | e4 e4 | z4 d4 | %13
 f4 f4 | z4 B4 | [FA]>B [FA]G [DF]A[Fd]f |[M:3/4] [Ge]4 [Fd]2 |] %17
V:2
 z4 z2 D,2 | D,>D, D,D, D,2 D,D, | G,[G,B,]G,B,, D,2 D,2 | D,>D, D,D, D,2 [D,A,D][D,A,D] | %4
 [E,=G,D][E,G,D][E,G,D][E,G,D] [A,,A,]2 [A,,_G,]2 | %5
 [D,F,]>[D,G,D] [D,A,D][D,A,] [D,D]2 [D,A,][D,D] | [G,DG][G,B,G][G,DG]B,, D,2 [D,A,]2 | %7
 [D,D]>[D,D] [D,D][C,A,] [D,A,][D,D][D,A,][D,A,] | A,4 [D,A,]4 | %9
 z[K:treble] F/F/[K:bass] z F z F z F | z F z F .E,>G B,,A,, | %11
 z[K:treble] G/G/[K:bass] z G z G z G | z F z F .D,>F B,,A,, | %13
 z[K:treble] F/F/[K:bass] z F z F z F | z F z F .G,,>D D,G, | z z/ G/ z E z F z A | %16
[M:3/4] C,A,, B,,C, D,2 |] %17
V:3
 x8 | x2[K:treble] x6 | x8 | x2[K:treble] x6 | x8 | x8 | x8 | x8 | %8
 z[K:bass] A,,B,,C,[K:treble] [Fd]4 | z A/A/ [FA]A z A z [Ae] | [FAd][Ac][FB]A z [GA]/A/ [GA][GA] | %11
 z [Ac]/[Ac]/ [GAc][Ac] z [Ac] z [Acf] | [FAe][Ad][FAd][Ac] z [FA]/A/ [FA][FA] | %13
 z [Ad]/[Ad]/ [FAd][Ad] z B z [Ae] | [FAd]A[FAd][Ac] z [DG]/G/ [DG][DGd] | x8 |[M:3/4] x6 |] %17
V:4
 x8 | x8 | x8 | x8 | x8 | x8 | x8 | x8 | .C,2 z2 z4 | D,2[K:treble][K:bass] A,,2 D,2 A,,2 | %10
 D,2 A,,2 z C, z2 | E,2[K:treble][K:bass] A,,2 E,2 A,,2 | D,2 A,,2 z C, z2 | %13
 D,2[K:treble][K:bass] A,,2 D,2 A,,2 | D,2 A,,2 z B,, z2 | D,2 A,,2 D,2 A,,2 |[M:3/4] x6 |] %17

